SVG/arrows-alt.svg

<?xml version="1.0" encoding="utf-8"?>
<!-- Generated by IcoMoon.io -->
<!DOCTYPE svg PUBLIC "-//W3C//DTD SVG 1.1//EN" "http://www.w3.org/Graphics/SVG/1.1/DTD/svg11.dtd">
<svg version="1.1" xmlns="http://www.w3.org/2000/svg" xmlns:xlink="http://www.w3.org/1999/xlink" width="12" height="14" viewBox="0 0 12 14">
<path fill="#444444" d="M10.023 4.227l-2.773 2.773 2.773 2.773 1.125-1.125q0.227-0.242 0.547-0.109 0.305 0.133 0.305 0.461v3.5q0 0.203-0.148 0.352t-0.352 0.148h-3.5q-0.328 0-0.461-0.312-0.133-0.305 0.109-0.539l1.125-1.125-2.773-2.773-2.773 2.773 1.125 1.125q0.242 0.234 0.109 0.539-0.133 0.312-0.461 0.312h-3.5q-0.203 0-0.352-0.148t-0.148-0.352v-3.5q0-0.328 0.312-0.461 0.305-0.133 0.539 0.109l1.125 1.125 2.773-2.773-2.773-2.773-1.125 1.125q-0.148 0.148-0.352 0.148-0.094 0-0.187-0.039-0.312-0.133-0.312-0.461v-3.5q0-0.203 0.148-0.352t0.352-0.148h3.5q0.328 0 0.461 0.312 0.133 0.305-0.109 0.539l-1.125 1.125 2.773 2.773 2.773-2.773-1.125-1.125q-0.242-0.234-0.109-0.539 0.133-0.312 0.461-0.312h3.5q0.203 0 0.352 0.148t0.148 0.352v3.5q0 0.328-0.305 0.461-0.102 0.039-0.195 0.039-0.203 0-0.352-0.148z"></path>
</svg>

<svg xmlns="http://www.w3.org/2000/svg" viewBox="0 0 12 14"><path d="M10.023 4.227L7.25 7l2.773 2.773 1.125-1.125q.227-.242.547-.11Q12 8.673 12 9v3.5q0 .203-.148.352T11.5 13H8q-.328 0-.46-.312-.134-.305.108-.54l1.125-1.124L6 8.25l-2.773 2.774 1.125 1.125q.242.232.11.537Q4.327 13 4 13H.5q-.203 0-.352-.148T0 12.5V9q0-.328.312-.46.305-.134.54.108l1.124 1.125L4.75 7 1.975 4.227.85 5.352Q.704 5.5.5 5.5q-.095 0-.188-.04Q0 5.33 0 5V1.5q0-.203.148-.352T.5 1H4q.328 0 .46.312.134.305-.108.54L3.227 2.975 6 5.75l2.773-2.774L7.648 1.85q-.242-.233-.11-.538Q7.673 1 8 1h3.5q.203 0 .352.148T12 1.5V5q0 .328-.305.46-.102.04-.195.04-.203 0-.352-.148z" /></svg>
